!!!!SEGMENT: Ser1001e-Missa_Philomena-Agnus.krn
!!!id: Ser1001e
!!!AGN: Mass; Kyrie
!!!voices: 2-5
!!!COM: Claudin de Sermisy
!!!OPR: Missa Philomena
!!!OTL: Agnus
**kern	**kern	**kern	**kern	**kern
*part5	*part4	*part3	*part2	*part1
*staff5	*staff4	*staff3	*staff2	*staff1
*I"Bassus	*I"Tenor I	*I"Tenor II	*I"Altus	*I"Superius
*I'B	*I'T. I	*I'T. II	*I'A	*I'S
*clefF4	*clefGv2	*clefGv2	*clefG2	*clefG2
*k[]	*k[]	*k[]	*k[]	*k[]
*C:	*C:	*C:	*C:	*C:
*M2/1	*M2/1	*M2/1	*M2/1	*M2/1
*met(C|)	*met(C|)	*met(C|)	*met(C|)	*met(C|)
!!section: Agnus Dei I
!!!OMD: Agnus Dei I
0r	1.d	0r	0r	0r
.	2d	.	.	.
=1	=1	=1	=1	=1
0r	2c	0r	1r	0r
.	2A	.	.	.
.	2.c	.	[1g	.
.	4d	.	.	.
=2	=2	=2	=2	=2
0r	2e	0r	2g]	1r
.	2c	.	2g	.
.	2d	.	2f	[1dd
.	2G	.	2d	.
=3	=3	=3	=3	=3
0r	2d	0r	2.f	2dd]
.	2B	.	.	2dd
.	.	.	4g	.
.	2A	.	2a	2cc
.	2d	.	2f	2a
=4	=4	=4	=4	=4
0r	2c	0r	2g	2.cc
.	2A	.	2a	.
.	.	.	.	4dd
.	2.c	.	2e	2ee
.	.	.	[2a	4dd
.	4d	.	.	4cc
=5	=5	=5	=5	=5
0r	1e	0r	2a]	1b
.	.	.	2g	.
.	2A	.	2a	2cc
.	[2d	.	[2f	2a
=6	=6	=6	=6	=6
1.G	4d]	0r	2f]	0b
.	4c	.	.	.
.	4B	.	4e	.
.	4A	.	4d	.
.	1B	.	1e	.
2G	.	.	.	.
=7	=7	=7	=7	=7
2F	2c	0r	0f	0a
2D	2d	.	.	.
2.F	2A	.	.	.
.	[2d	.	.	.
4G	.	.	.	.
=8	=8	=8	=8	=8
1A	2d]	0r	1e	2r
.	2c#i	.	.	2a
[1D	2.d	.	2r	2a
.	.	.	2a	2a
.	4e	.	.	.
=9	=9	=9	=9	=9
1D]	1f	0r	2a	4d
.	.	.	.	4e
.	.	.	2a	4f
.	.	.	.	4g
1r	1r	.	4d	4a
.	.	.	4e	4g
.	.	.	4f	4a
.	.	.	4d	4b
=10	=10	=10	=10	=10
0r	0r	0r	2e	2cc
.	.	.	2f	4a
.	.	.	.	4b
.	.	.	2e	4cc
.	.	.	.	4dd
.	.	.	[2g	[2ee
=11	=11	=11	=11	=11
2r	0r	0r	4g]	4ee]
.	.	.	4f	4dd
2A	.	.	4e	4cc
.	.	.	4d	4b
2A	.	.	2e	1cc
2A	.	.	[2f	.
=12	=12	=12	=12	=12
2D	2r	0r	4f]	0dd
.	.	.	4e	.
1G	2d	.	4d	.
.	.	.	4c	.
.	2d	.	4B	.
.	.	.	4A	.
2F	2d	.	[2d	.
=13	=13	=13	=13	=13
1E	1G	0r	2d]	1ee
.	.	.	2c	.
1D	[1d	.	2B	[1ff
.	.	.	2A	.
=14	=14	=14	=14	=14
0r	2d]	0r	2r	2ff]
.	2c	.	1a	2ee
.	1B	.	.	1dd
.	.	.	2g#i	.
=15	=15	=15	=15	=15
2r	4A	0r	1a	0cc
.	4B	.	.	.
2A	4c	.	.	.
.	4d	.	.	.
2A	1e	.	2r	.
2A	.	.	2a	.
=16	=16	=16	=16	=16
2D	2r	0r	2a	1.ff
1d	2a	.	2a	.
.	2a	.	2d	.
2c	2a	.	[2a	2ee
=17	=17	=17	=17	=17
1B	1d	0r	2a]	2dd
.	.	.	2g	2b
1A	2.a	.	2f	2cc
.	.	.	2e	2ee
.	4g	.	.	.
=18	=18	=18	=18	=18
0r	2f	0r	2a	2ff
.	2e	.	2.b-i	1gg
.	1d	.	.	.
.	.	.	4a	.
.	.	.	4g	[2ff
.	.	.	4f	.
=19	=19	=19	=19	=19
1r	1c	0r	1g	2ff]
.	.	.	.	2ee
2r	2r	.	2f	1ff
2F	2f	.	2a	.
=20	=20	=20	=20	=20
2F	2f	0r	2a	1cc
2F	2f	.	2a	.
2G	1e	.	4g	2r
.	.	.	4f	.
[2A	.	.	4e	2cc
.	.	.	4d	.
=21	=21	=21	=21	=21
4A]	2r	0r	2e	2cc
4G	.	.	.	.
4F	2a	.	2.f	2cc
4E	.	.	.	.
2D	2a	.	.	1dd
.	.	.	4e	.
2F	2a	.	[2d	.
=22	=22	=22	=22	=22
1E	1g	0r	2d]	1ee
.	.	.	2c#i	.
1D	2f	.	1d	1ff
.	[2a	.	.	.
=23	=23	=23	=23	=23
0r	4a]	0r	2r	2ee
.	4g	.	.	.
.	4f	.	2a	2.ff
.	4e	.	.	.
.	2d	.	2a	.
.	.	.	.	4ee
.	2f	.	2a	2dd
=24	=24	=24	=24	=24
2r	1.e	0r	2g	2cc
2A	.	.	2c	2.ee
2A	.	.	2c	.
.	.	.	.	4dd
2A	2f	.	2c	2cc
=25	=25	=25	=25	=25
1G	1g	0r	2d	1b
.	.	.	2e	.
2F	2r	.	1f	[1a
[2A	2c	.	.	.
=26	=26	=26	=26	=26
4A]	2c	0r	2e	1a]
4G	.	.	.	.
4F	2c	.	2.f	.
4E	.	.	.	.
2D	1d	.	.	1a
.	.	.	4g	.
2F	.	.	[2a	.
=27	=27	=27	=27	=27
1E	1e	0r	2a]	2cc
.	.	.	2g	2b
2r	2f	.	2a	4a
.	.	.	.	4b
2c	[2g	.	2e	4cc
.	.	.	.	4dd
=28	=28	=28	=28	=28
2c	2g]	0r	2.cc	2.ee
2c	2a	.	.	.
.	.	.	4b	8ddL
.	.	.	.	8eeJ
2d	2f	.	2a	2ff
[2e	2e	.	4g	[2gg
.	.	.	4a	.
=29	=29	=29	=29	=29
4e]	1g	0r	4b	4gg]
4d	.	.	8aL	4ff
.	.	.	8bJ	.
4c	.	.	2cc	4ee
4B	.	.	.	4dd
2A	2a	.	2r	2cc
2c	[2g	.	2e	[2ee
=30	=30	=30	=30	=30
1B	4g]	0r	2f	2ee]
.	4f	.	.	.
.	4e	.	2g	1dd
.	4d	.	.	.
1A	1e	.	1a	.
.	.	.	.	2cc#i
=31	=31	=31	=31	=31
[0Dl	[0dl	0r	2b-i	[0ddl
.	.	.	2.a	.
.	.	.	4g	.
.	.	.	4f	.
.	.	.	4e	.
=32	=32	=32	=32	=32
00D]	00d]	00r	00f	00dd]
=33||	=33||	=33||	=33||	=33||
*M2/1	*M2/1	*M2/1	*M2/1	*M2/1
*met(C|)	*met(C|)	*met(C|)	*met(C|)	*met(C|)
!!section: Agnus Dei II
!!!OMD: Agnus Dei II
0r	0r	0r	1r	0ee
.	.	.	[1a	.
=34	=34	=34	=34	=34
0r	0r	0r	1a]	1ee
.	.	.	1a	1ff
=35	=35	=35	=35	=35
0r	0r	0r	1b	2dd
.	.	.	.	2.gg
.	.	.	2g	.
.	.	.	.	4ff
.	.	.	[2a	4ee
.	.	.	.	4dd
=36	=36	=36	=36	=36
0r	0r	0r	4a]	2cc
.	.	.	4g	.
.	.	.	4f	1ee
.	.	.	4e	.
.	.	.	2f	.
.	.	.	[2g	2dd
=37	=37	=37	=37	=37
0r	0r	0r	2g]	1ee
.	.	.	1a	.
.	.	.	.	2r
.	.	.	2g	[2ee
=38	=38	=38	=38	=38
0r	0r	0r	2.a	2ee]
.	.	.	.	2.ff
.	.	.	4g	.
.	.	.	2f	.
.	.	.	.	4ee
.	.	.	[2g	4dd
.	.	.	.	4cc
=39	=39	=39	=39	=39
0r	0r	0r	2g]	2dd
.	.	.	2e	2ee
.	.	.	4f	4a
.	.	.	4g	4b
.	.	.	4a	4cc
.	.	.	4f	4dd
=40	=40	=40	=40	=40
0r	0r	0r	2g	1ee
.	.	.	2.a	.
.	.	.	.	2cc
.	.	.	4g	.
.	.	.	4f	[2ff
.	.	.	4e	.
=41	=41	=41	=41	=41
0r	0r	0r	2d	4ff]
.	.	.	.	4ee
.	.	.	2.g	4dd
.	.	.	.	4cc
.	.	.	.	2b
.	.	.	4f	.
.	.	.	4e	[2ee
.	.	.	4d	.
=42	=42	=42	=42	=42
0r	0r	0r	2c	2ee]
.	.	.	2d	1dd
.	.	.	1e	.
.	.	.	.	2cc#i
=43	=43	=43	=43	=43
0r	0r	0r	1d	[0dd
.	.	.	2r	.
.	.	.	2g	.
=44	=44	=44	=44	=44
0r	0r	0r	2g	1dd]
.	.	.	2g	.
.	.	.	2f	2r
.	.	.	2g	2dd
=45	=45	=45	=45	=45
0r	0r	0r	4d	2dd
.	.	.	4e	.
.	.	.	4f	2dd
.	.	.	4g	.
.	.	.	2a	2cc
.	.	.	4d	2dd
.	.	.	4e	.
=46	=46	=46	=46	=46
0r	0r	0r	4f	4a
.	.	.	4g	4b
.	.	.	4a	4cc
.	.	.	4b	4dd
.	.	.	2cc	2ee
.	.	.	[2a	[2ff
=47	=47	=47	=47	=47
0r	0r	0r	4a]	2ff]
.	.	.	4g	.
.	.	.	4f	1ee
.	.	.	4e	.
.	.	.	1f	.
.	.	.	.	2dd
=48	=48	=48	=48	=48
0r	0r	0r	1e	0ee
.	.	.	2r	.
.	.	.	2a	.
=49	=49	=49	=49	=49
0r	0r	0r	1cc	2r
.	.	.	.	2ee
.	.	.	1b	2gg
.	.	.	.	[2ff
=50	=50	=50	=50	=50
0r	0r	0r	1a	2ff]
.	.	.	.	2.ee
.	.	.	2g	.
.	.	.	.	4dd
.	.	.	[2a	4cc
.	.	.	.	4b
=51	=51	=51	=51	=51
0r	0r	0r	4a]	1cc
.	.	.	4g	.
.	.	.	4f	.
.	.	.	4e	.
.	.	.	2f	1dd
.	.	.	2g	.
=52	=52	=52	=52	=52
0r	0r	0r	4c	2.ee
.	.	.	4d	.
.	.	.	4e	.
.	.	.	4f	8ddL
.	.	.	.	8ccJ
.	.	.	2g	4b
.	.	.	.	4a
.	.	.	4d	[2dd
.	.	.	4e	.
=53	=53	=53	=53	=53
0r	0r	0r	4f	4dd]
.	.	.	4g	4cc
.	.	.	1a	4b
.	.	.	.	4a
.	.	.	.	1b
.	.	.	2g#i	.
=54	=54	=54	=54	=54
0r	0r	0r	0a	1a
.	.	.	.	2r
.	.	.	.	2ee
=55	=55	=55	=55	=55
0r	0r	0r	2r	2ee
.	.	.	2a	2ee
.	.	.	2a	1cc
.	.	.	2a	.
=56	=56	=56	=56	=56
0r	0r	0r	2f	1dd
.	.	.	1g	.
.	.	.	.	2.ee
.	.	.	[2a	.
.	.	.	.	4dd
=57	=57	=57	=57	=57
0r	0r	0r	4a]	4cc
.	.	.	4g	4b
.	.	.	4f	1a
.	.	.	4e	.
.	.	.	2d	.
.	.	.	2f	[2dd
=58	=58	=58	=58	=58
0r	0r	0r	1e	2dd]
.	.	.	.	2cc#i
.	.	.	2r	1dd
.	.	.	2d	.
=59	=59	=59	=59	=59
0r	0r	0r	2d	2r
.	.	.	2d	2a
.	.	.	2.f	2a
.	.	.	.	2a
.	.	.	4g	.
=60	=60	=60	=60	=60
0r	0r	0r	1a	2.cc
.	.	.	.	4dd
.	.	.	2g	2ee
.	.	.	2f	[2ff
=61	=61	=61	=61	=61
0r	0r	0r	1b-i	2ff]
.	.	.	.	4ee
.	.	.	.	4dd
.	.	.	4a	4cc
.	.	.	4f	4dd
.	.	.	[2g	4ee
.	.	.	.	4ff
=62	=62	=62	=62	=62
0r	0r	0r	4g]	2ee
.	.	.	4f	.
.	.	.	4e	1dd
.	.	.	4d	.
.	.	.	1e	.
.	.	.	.	2cc#i
=63	=63	=63	=63	=63
00r	00r	00r	00d	00dd
=64||	=64||	=64||	=64||	=64||
*M2/1	*M2/1	*M2/1	*M2/1	*M2/1
*met(C|)	*met(C|)	*met(C|)	*met(C|)	*met(C|)
!!section: Agnus Dei III
!!!OMD: Agnus Dei III
1A	0r	1r	0e	0a
2.c	.	1A	.	.
4B	.	.	.	.
=65	=65	=65	=65	=65
4A	0r	2.c	1e	1a
4G	.	.	.	.
2.A	.	.	.	.
.	.	4d	.	.
.	.	2e	1a	1cc
4G	.	.	.	.
4F	.	[2f	.	.
4E	.	.	.	.
=66	=66	=66	=66	=66
1D	1A	2f]	1a	1dd
.	.	4e	.	.
.	.	4d	.	.
1A	2.c	2f	2.a	1cc
.	.	2e	.	.
.	4d	.	4b	.
=67	=67	=67	=67	=67
2r	2e	2c	2cc	0r
2D	1f	2d	1a	.
2.F	.	1A	.	.
.	4e	.	4g	.
4G	4d	.	4f	.
=68	=68	=68	=68	=68
1A	1c	0r	1e	2r
.	.	.	.	2a
1r	2.A	.	2r	2.cc
.	.	.	2a	.
.	4B	.	.	4dd
=69	=69	=69	=69	=69
0r	2c	0r	2g	2ee
.	1d	.	2f	1ff
.	.	.	1b-i	.
.	4c	.	.	4ee
.	4B	.	.	4dd
=70	=70	=70	=70	=70
2r	2d	1r	0a	2ff
2.c	2c	.	.	2ee
.	1A	1c	.	1cc
4B	.	.	.	.
2A	.	.	.	.
=71	=71	=71	=71	=71
2G	2B	2d	0r	2b
2F	2c	1f	.	1a
1B-i	1d	.	.	.
.	.	4e	.	2g
.	.	4d	.	.
=72	=72	=72	=72	=72
1A	2.c	2f	1r	0a
.	.	2e	.	.
.	4d	.	.	.
1r	2e	1A	1c	.
.	[2f	.	.	.
=73	=73	=73	=73	=73
0r	4f]	1B	2d	0r
.	4e	.	.	.
.	1d	.	1f	.
.	.	[1A	.	.
.	4c	.	4e	.
.	4B	.	4d	.
=74	=74	=74	=74	=74
2r	2.c	1A]	2.e	0r
2.c	.	.	.	.
.	4d	.	4f	.
.	2e	2r	2g	.
4B	.	.	.	.
2A	2f	2c	2a	.
=75	=75	=75	=75	=75
2G	2g	2d	2b	0r
2F	2c	1f	1a	.
1B-i	1d	.	.	.
.	.	4e	2g	.
.	.	4d	.	.
=76	=76	=76	=76	=76
[0A	1e	1c	2.a	2r
.	.	.	.	2cc
.	.	.	4g	.
.	2c	2r	[1e	2a
.	2A	2c	.	[2cc
=77	=77	=77	=77	=77
1A]	2.c	2A	0e]	4cc]
.	.	.	.	4b
.	.	2.c	.	2a
.	4d	.	.	.
1r	2e	.	.	2g
.	.	4B	.	.
.	2c	2A	.	2cc
=78	=78	=78	=78	=78
0r	0d	2G	2r	2b
.	.	2F	2f	2a
.	.	1B-i	2d	1dd
.	.	.	[2f	.
=79	=79	=79	=79	=79
0r	1a	1A	2f]	0cc
.	.	.	4e	.
.	.	.	4d	.
.	1A	2r	[1e	.
.	.	2c	.	.
=80	=80	=80	=80	=80
1r	1a	2A	1e]	2r
.	.	2c	.	2cc
2r	[1f	2d	2r	2a
2F	.	2c	2a	2cc
=81	=81	=81	=81	=81
2D	1f]	2r	2f	2dd
2.F	.	2c	2.a	1cc
.	1r	2.A	.	.
4E	.	.	4g	.
2D	.	.	2f	2dd
.	.	4B	.	.
=82	=82	=82	=82	=82
2C	2c	4c	1e	0ee
.	.	4d	.	.
2c	2A	1e	.	.
2A	2.c	.	[1a	.
[2c	.	[2A	.	.
.	4d	.	.	.
=83	=83	=83	=83	=83
4c]	2e	4A]	2a]	2.cc
4B	.	4B	.	.
2A	2f	2c	2a	.
.	.	.	.	4dd
2G	2g	2B	2b	2ee
2F	2a	2A	2cc	[2ff
=84	=84	=84	=84	=84
1B-i	1d	2d	2f	4ff]
.	.	.	.	4ee
.	.	2G	2g	1dd
1A	1e	1c	1a	.
.	.	.	.	2cc#i
=85	=85	=85	=85	=85
0D	0d	[0A	2f	1dd
.	.	.	2d	.
.	.	.	1f	2r
.	.	.	.	2a
=86	=86	=86	=86	=86
0r	2r	0A]	1e	2.cc
.	2A	.	.	.
.	.	.	.	4dd
.	2.c	.	1r	2ee
.	.	.	.	2ff
.	4d	.	.	.
=87	=87	=87	=87	=87
0r	2e	0r	1r	2.gg
.	2f	.	.	.
.	.	.	.	4ff
.	2g	.	2r	4ee
.	.	.	.	4dd
.	2a	.	2d	[2ff
=88	=88	=88	=88	=88
2r	2d	0r	2.f	4ff]
.	.	.	.	4ee
2D	1a	.	.	1ff
.	.	.	4g	.
2F	.	.	2a	.
2G	2g	.	2b	[2ee
=89	=89	=89	=89	=89
2A	1f	1r	2cc	2ee]
2B	.	.	4b	2dd
.	.	.	4a	.
2.c	1e	2r	2g	[1ee
.	.	2A	[2a	.
4B	.	.	.	.
=90	=90	=90	=90	=90
4A	2r	2.c	4a]	1ee]
4G	.	.	4b	.
2.A	2e	.	2cc	.
.	.	4d	.	.
.	2.c	2e	2a	1r
4G	.	.	.	.
2F	.	2f	[2cc	.
.	4d	.	.	.
=91	=91	=91	=91	=91
2E	2e	2g	2cc]	0r
2G	2B	1e	1b	.
1F	2c	.	.	.
.	2A	2d	[2a	.
=92	=92	=92	=92	=92
0E	2.c	0e	2a]	1r
.	.	.	4g#i	.
.	4d	.	4f#i	.
.	1B	.	1g#i	2r
.	.	.	.	2ee
=93	=93	=93	=93	=93
0A	1A	2r	1a	1ee
.	.	2e	.	.
.	2r	[1e	2r	2.cc
.	2A	.	2a	.
.	.	.	.	4dd
=94	=94	=94	=94	=94
0r	1A	2e]	1a	2ee
.	.	2c	.	1ff
.	1B	1d	2f	.
.	.	.	2g	4ee
.	.	.	.	4dd
=95	=95	=95	=95	=95
2r	4A	2.e	0a	0cc
.	4B	.	.	.
2A	4c	.	.	.
.	4d	4d	.	.
1A	4e	4c	.	.
.	4d	4A	.	.
.	[2f	[2a	.	.
=96	=96	=96	=96	=96
2F	2f]	2a]	1r	0r
2G	4e	4g	.	.
.	4d	4f	.	.
2.A	2.c	1e	2r	.
.	.	.	2a	.
4B	4d	.	.	.
=97	=97	=97	=97	=97
2c	2e	1r	1a	0r
2.d	2f	.	.	.
.	2d	2r	2f	.
4c	.	.	.	.
2B	[2g	2d	2g	.
=98	=98	=98	=98	=98
1A	2g]	2c	1a	1r
.	2f#i	2f	.	.
1G	1g	2e	1b	2r
.	.	2d	.	2dd
=99	=99	=99	=99	=99
0r	2r	2.f	0a	2cc
.	2.d	.	.	2.ff
.	.	4e	.	.
.	.	4f	.	.
.	4c	4g	.	4ee
.	4B	[2a	.	4dd
.	4A	.	.	4cc
=100	=100	=100	=100	=100
0r	1B	2a]	1d	1dd
.	.	2g#i	.	.
.	1A	1a	2e	2cc
.	.	.	2f	2a
=101	=101	=101	=101	=101
1G	1r	1d	0g	4b
.	.	.	.	4a
.	.	.	.	4b
.	.	.	.	4cc
2G	1d	1r	.	1dd
2G	.	.	.	.
=102	=102	=102	=102	=102
1B	2d	0r	1f	0r
.	2d	.	.	.
2A	2f	.	1r	.
[2G	[2e	.	.	.
=103	=103	=103	=103	=103
4G]	2e]	0r	1g	1r
4F	.	.	.	.
4E	1d	.	.	.
4D	.	.	.	.
1E	.	.	2g	1gg
.	2c	.	2g	.
=104	=104	=104	=104	=104
1D	1d	2r	2b	2.ff
.	.	2d	1a	.
.	.	.	.	4ee
2r	1B	2d	.	2dd
[2d	.	2d	2g	2b
=105	=105	=105	=105	=105
2d]	1A	2f	2.a	1cc
2c	.	1e	.	.
.	.	.	4g	.
2d	1r	.	2f	2a
2B	.	[2d	2d	2g
=106	=106	=106	=106	=106
1A	1r	2d]	1e	0a
.	.	2c#i	.	.
1D	2r	1d	1f	.
.	2d	.	.	.
=107	=107	=107	=107	=107
1G	2d	2r	1g	1b
.	2d	2B	.	.
1F	1f	2c	2.a	4a
.	.	.	.	4b
.	.	[2A	.	4cc
.	.	.	4b	4dd
=108	=108	=108	=108	=108
0r	2e	2A]	2cc	2ee
.	2.d	2a	4f	2ff
.	.	.	4g	.
.	.	2f	4a	2dd
.	4c	.	4b	.
.	4B	2a	2cc	[2ee
.	4A	.	.	.
=109	=109	=109	=109	=109
0r	1B	4g	2b	2ee]
.	.	4f	.	.
.	.	4e	2g	1dd
.	.	4d	.	.
.	[1A	1e	1a	.
.	.	.	.	2cc#i
=110	=110	=110	=110	=110
0D	1A]	2r	0f	[0ddl
.	.	2d	.	.
.	1r	2d	.	.
.	.	2d	.	.
=111	=111	=111	=111	=111
1D	2r	1f	1a	0dd_
.	2d	.	.	.
[1G	2d	2e	[1b-i	.
.	2d	[2d	.	.
=112	=112	=112	=112	=112
2G]	2.f	4d]	2b-]	0dd_
.	.	4c	.	.
2F	.	4B	2a	.
.	4e	4A	.	.
1G	4d	1B	1g	.
.	4c	.	.	.
.	[2d	.	.	.
=113	=113	=113	=113	=113
[0Dl	4d]	0A	0a	0dd_
.	4c	.	.	.
.	4B	.	.	.
.	4A	.	.	.
.	1B	.	.	.
=114	=114	=114	=114	=114
00D]	00Al	00dl	00fl	00dd]
==	==	==	==	==
*-	*-	*-	*-	*-
!!!system-decoration: [*]
!!!RDF**kern: i = editorial accidental
!!!RDF**kern: l = terminal long
!!!ENC: Benjamin Ory
!!!END: 2024/6/4
!!!EED: Benjamin Ory
!!!EEV: 2024/06/04
!!!YEC: Copyright 2024 Benjamin Ory, All Rights Reserved
!!!ONB: Translated from MusicXML on 2024/06/04
